!!!!SEGMENT: pl-wumfc--n50515--002_moniuszko-stanislaw--lirnik-wioskowy-liro-ty-moja-spiewna.krn
!!!cenid: 18xx:4128
!!!COM: Moniuszko, Stanisław
!!!COM-rismID: pe30008351
!!!CDT: 1819/05/05-1872/06/04
!!!CNT: Polish
!!!GTL: Lirnik wioskowy/Liro ty moja śpiewna
!!!OTL: [work 2]
!!!OMV: 002
!!!PDT:
!!!AGN:
!!!SMS-siglum: PL-Wumfc
!!!SMS-shelfmark: N50515
!!!SMS-variant:
!!!SMS-altvar:
!!!SMS-shelfwork: 001-002 G
!!!NIFC-rismSourceID: 1001166115
!!!NIFC-rismChildID: 1001166115
!!!NIFC-islandoraID: pl-wumfc:6615
!!!URL-pdf-islandora: https://repozytorium.nifc.pl/islandora/object/pl-wumfc%3A6615/datastream/PDF/view
!!!URL-scan: https://polish.musicsources.pl/pl/lokalizacje/galeria/druki-muzyczne/12529/6 @EN{Scan on Polish Music Sources Website} @PL{Skany w portalu Dziedzictwo Muzyki Polskiej w otwartym dostępie}
!!!ONB-nifc: UWAGA: pieśń nr 2, str. 6-8.
!!!AIN: 2 piano 1 vox
!!!key:
**kern	**kern	**fing	**dynam	**kern	**text	**text	**dynam
*part3	*part2	*	*part2	*part1	*part1	*part1	*part1
*staff3	*staff2	*	*	*staff1	*staff1	*staff1	*
*Ipiano	*Ipiano	*	*	*Ivox	*	*	*
*I"Piano	*I"Piano	*	*	*I"Canto	*	*	*
*I'P-no	*I'P-no	*	*	*I'C.	*	*	*
*clefF4	*clefG2	*	*	*clefG2	*	*	*
*k[f#]	*k[f#]	*	*	*k[f#]	*	*	*
*G:	*G:	*	*	*G:	*	*	*
*M2/4	*M2/4	*	*	*M2/4	*	*	*
*>[A,B,B,C]	*	*	*	*	*	*	*
=1	=1	=1	=1	=1	=1	=1	=1
*>A	*	*	*	*	*	*	*
*	*clefF4	*	*	*	*	*	*
*	*^	*	*	*	*	*	*
*	*	*	*	*^	*	*	*	*
*	*	*	*	*	*	*below	*	*	*
!	!LO:TX:b:i:t=sempre legato e molto tranquillo	!	!	!LO:DY:b 	!LO:DY:b=2	!LO:TX:a:B:t=Allegretto.(M. [quarter]=100.)	!	!	!
4GG'/	4d/	(>16B\LL	.	p	ppp	2r	.	.	.
*	*	*	*	*v	*v	*	*	*	*
.	.	16A\	.	.	.	.	.	.
.	.	16G\	.	.	.	.	.	.
.	.	16D\JJ)	.	.	.	.	.	.
8GG'/L	4d/	(>16B\LL	.	.	.	.	.	.
.	.	16A\	.	.	.	.	.	.
8GG'/J	.	16G\	.	.	.	.	.	.
.	.	16D\JJ)	.	.	.	.	.	.
=2	=2	=2	=2	=2	=2	=2	=2	=2
(8.GG/L	4d/	(>16B\LL	.	.	2r	.	.	.
.	.	16A\	.	.	.	.	.	.
.	.	16G\	.	.	.	.	.	.
32FF#/LL	.	16D\JJ)	.	.	.	.	.	.
32EE/JJJ	.	.	.	.	.	.	.	.
8.DD/L	4d/	(>16B\LL	.	.	.	.	.	.
.	.	16A\	.	.	.	.	.	.
.	.	16G\	.	.	.	.	.	.
32EE/LL	.	16D\JJ)	.	.	.	.	.	.
32FF#/JJJ)	.	.	.	.	.	.	.	.
=3	=3	=3	=3	=3	=3	=3	=3	=3
4GG'/	4d/	(>16B\LL	.	.	2r	.	.	.
.	.	16A\	.	.	.	.	.	.
.	.	16G\	.	.	.	.	.	.
.	.	16D\JJ)	.	.	.	.	.	.
8GG'/L	4d/	(>16B\LL	.	.	.	.	.	.
.	.	16A\	.	.	.	.	.	.
8GG'/J	.	16G\	.	.	.	.	.	.
.	.	16D\JJ)	.	.	.	.	.	.
=4	=4	=4	=4	=4	=4	=4	=4	=4
(8.GG/L	4d/	(>16B\LL	.	.	2r	.	.	.
.	.	16A\	.	.	.	.	.	.
.	.	16G\	.	.	.	.	.	.
32FF#/LL	.	16D\JJ)	.	.	.	.	.	.
32EE/JJJ	.	.	.	.	.	.	.	.
8.DD/L	4d/	(>16B\LL	.	.	.	.	.	.
.	.	16A\	.	.	.	.	.	.
.	.	16G\	.	.	.	.	.	.
32EE/LL	.	16D\JJ)	.	.	.	.	.	.
32FF#/JJJ)	.	.	.	.	.	.	.	.
!!LO:LB:g=original
=5	=5	=5	=5	=5	=5	=5	=5	=5
4GG'/	4d/	(>16B\LL	.	.	2r	.	.	.
.	.	16A\	.	.	.	.	.	.
.	.	16G\	.	.	.	.	.	.
.	.	16D\JJ)	.	.	.	.	.	.
8GG'/L	4d/	(>16B\LL	.	.	.	.	.	.
.	.	16A\	.	.	.	.	.	.
8GG'/J	.	16G\	.	.	.	.	.	.
.	.	16D\JJ)	.	.	.	.	.	.
=6	=6	=6	=6	=6	=6	=6	=6	=6
[2GG/	4d/	(>16B\LL	.	.	4r	.	.	.
.	.	16A\	.	.	.	.	.	.
.	.	16G\	.	.	.	.	.	.
.	.	16D\JJ)	.	.	.	.	.	.
!	!	!	!	!	!LO:TX:a:i:t=dolce	!	!	!
.	4d/	(>16B\LL	.	.	8dd\	Li-	.	.
.	.	16A\	.	.	.	.	.	.
.	.	16G\	.	.	8cc\	-ro	.	.
.	.	16D\JJ)	.	.	.	.	.	.
=7	=7	=7	=7	=7	=7	=7	=7	=7
2GG/_	4d/	(>16B\LL	.	.	4b\	ty	.	.
.	.	16A\	.	.	.	.	.	.
.	.	16G\	.	.	.	.	.	.
.	.	16D\JJ)	.	.	.	.	.	.
.	4d/	(>16B\LL	.	.	8a/	mo-	.	.
.	.	16A\	.	.	.	.	.	.
.	.	16G\	.	.	8g/	-ja	.	.
.	.	16D\JJ)	.	.	.	.	.	.
=8	=8	=8	=8	=8	=8	=8	=8	=8
2GG/_	4d/	(>16B\LL	.	.	4f#/	śpiew-	.	.
.	.	16A\	.	.	.	.	.	.
.	.	16G\	.	.	.	.	.	.
.	.	16D\JJ)	.	.	.	.	.	.
.	4d/	(>16B\LL	.	.	8e/	-na,	.	.
.	.	16A\	.	.	.	.	.	.
.	.	16G\	.	.	8d/	z cza-	.	.
.	.	16D\JJ)	.	.	.	.	.	.
=9	=9	=9	=9	=9	=9	=9	=9	=9
2GG/_	4d/	(>16B\LL	.	.	8g/	-ro-	.	.
.	.	16A\	.	.	.	.	.	.
.	.	16G\	.	.	8g/	-dziejs-	.	.
.	.	16D\JJ)	.	.	.	.	.	.
.	4d/	(>16B\LL	.	.	8a/	-kie-	.	.
.	.	16A\	.	.	.	.	.	.
.	.	16G\	.	.	8a/	-go	.	.
.	.	16D\JJ)	.	.	.	.	.	.
=10	=10	=10	=10	=10	=10	=10	=10	=10
(4GG/]	4d/	(>16B\LL	.	.	8b\	drew-	.	.
.	.	16A\	.	.	.	.	.	.
.	.	16G\	.	.	8dd\	-na!	.	.
.	.	16D\JJ)	.	.	.	.	.	.
4GGG/	4d/	(>16B\LL	.	.	8g/	nie-	.	.
.	.	16A\	.	.	.	.	.	.
.	.	16G\	.	.	8b\	-bez-	.	.
.	.	16D\JJ)	.	.	.	.	.	.
!!LO:LB:g=original
=11	=11	=11	=11	=11	=11	=11	=11	=11
4CC/	4e/	(>16c\LL	.	.	4e/	-piecz-	.	.
.	.	16B\	.	.	.	.	.	.
.	.	16A\	.	.	.	.	.	.
.	.	16E\JJ)	.	.	.	.	.	.
4DD/	4d/	(>16c\LL	.	.	8f#/	-neś	.	.
.	.	16A\	.	.	.	.	.	.
.	.	16F#\	.	.	8f#/	na-	.	.
.	.	16D\JJ)	.	.	.	.	.	.
=12	=12	=12	=12	=12	=12	=12	=12	=12
4GGG/)	4d/	(>16B\LL	.	.	8g/	-rzę-	.	.
.	.	16A\	.	.	.	.	.	.
.	.	16G\	.	.	8g/	-dzie!	.	.
.	.	16D\JJ)	.	.	.	.	.	.
8GG'/L	4d/	(>16B\LL	.	.	4r	.	.	.
.	.	16A\	.	.	.	.	.	.
8GG'/J	.	16G\	.	.	.	.	.	.
.	.	16D\JJ)	.	.	.	.	.	.
=13	=13	=13	=13	=13	=13	=13	=13	=13
(8.GG/L	4d/	(>16B\LL	.	.	4r	.	.	.
.	.	16A\	.	.	.	.	.	.
.	.	16G\	.	.	.	.	.	.
32FF#/LL	.	16D\JJ)	.	.	.	.	.	.
32EE/JJJ	.	.	.	.	.	.	.	.
8.DD/L	4d/	(>16B\LL	.	.	8dd\	Jak-	.	.
.	.	16A\	.	.	.	.	.	.
.	.	16G\	.	.	8cc\	-by	.	.
32EE/LL	.	16D\JJ)	.	.	.	.	.	.
32FF#/JJJ)	.	.	.	.	.	.	.	.
=14	=14	=14	=14	=14	=14	=14	=14	=14
4GG'/	4d/	(>16B\LL	.	.	4b\	w pie-	.	.
.	.	16A\	.	.	.	.	.	.
.	.	16G\	.	.	.	.	.	.
.	.	16D\JJ)	.	.	.	.	.	.
8GG'/L	4d/	(>16B\LL	.	.	8a/	-kle,	.	.
.	.	16A\	.	.	.	.	.	.
8GG'/J	.	16G\	.	.	8g/	jak	.	.
.	.	16D\JJ)	.	.	.	.	.	.
=15	=15	=15	=15	=15	=15	=15	=15	=15
2GG/	4d/	(>16B\LL	.	.	8g/	w nie-	.	.
.	.	16A\	.	.	.	.	.	.
.	.	16G\	.	.	8f#/	-bie,	.	.
.	.	16D\JJ)	.	.	.	.	.	.
.	4d/	(>16B\LL	.	.	8e/	kto	.	.
.	.	16A\	.	.	.	.	.	.
.	.	16G\	.	.	8d/	się	.	.
.	.	16D\JJ)	.	.	.	.	.	.
=16	=16	=16	=16	=16	=16	=16	=16	=16
(4GG/	4d/	(>16B\LL	.	.	4g/	do-	.	.
.	.	16A\	.	.	.	.	.	.
.	.	16G\	.	.	.	.	.	.
.	.	16D\JJ)	.	.	.	.	.	.
4DD/	4d/	(>16B\LL	.	.	8a/	-łknął	.	.
.	.	16A\	.	.	.	.	.	.
.	.	16G\	.	.	8a/	do	.	.
.	.	16D\JJ)	.	.	.	.	.	.
!!LO:PB:g=original
=17	=17	=17	=17	=17	=17	=17	=17	=17
4GG/	4d/	(>16B\LL	.	.	8b\	cie-	.	.
.	.	16A\	.	.	.	.	.	.
.	.	16G\	.	.	8dd\	-bie	.	.
.	.	16D\JJ)	.	.	.	.	.	.
4EE/	4d/	(>16B\LL	.	.	8g/	wiecz-	.	.
.	.	16A\	.	.	.	.	.	.
.	.	16G\	.	.	8b\	-nie	.	.
.	.	16D\JJ)	.	.	.	.	.	.
=18	=18	=18	=18	=18	=18	=18	=18	=18
4CC/	4e/	(>16c\LL	.	.	4e/	pa-	.	.
.	.	16A\	.	.	.	.	.	.
.	.	16G\	.	.	.	.	.	.
.	.	16E\JJ)	.	.	.	.	.	.
4DD/)	4d/	(>16c\LL	.	.	8f#/	-mię-	.	.
.	.	16A\	.	.	.	.	.	.
.	.	16F#\	.	.	8f#/	-tać	.	.
.	.	16D\JJ)	.	.	.	.	.	.
=19	=19	=19	=19	=19	=19	=19	=19	=19
4GG'/	4d/	(>16B\LL	.	.	8g/	bę-	.	.
.	.	16A\	.	.	.	.	.	.
.	.	16G\	.	.	8g/	-dzie!	.	.
.	.	16D\JJ)	.	.	.	.	.	.
8GG'/L	4d/	(>16B\LL	.	.	4r	.	.	.
.	.	16A\	.	.	.	.	.	.
8GG'/J	.	16G\	.	.	.	.	.	.
.	.	16D\JJ)	.	.	.	.	.	.
=20	=20	=20	=20	=20	=20	=20	=20	=20
(8.GG/L	4d/	(>16B\LL	.	.	4r	.	.	.
.	.	16A\	.	.	.	.	.	.
.	.	16G\	.	.	.	.	.	.
32EE/LL	.	16D\JJ)	.	.	.	.	.	.
32DD/JJJ	.	.	.	.	.	.	.	.
8.CC/L	4e/	(>16c\LL	.	.	8g/	wnet	.	.
.	.	16A\	.	.	.	.	.	.
.	.	16G\	.	.	8g/	go	.	.
32EE/LL	.	16D\JJ)	.	.	.	.	.	.
32FF#X/JJJ)	.	.	.	.	.	.	.	.
=21	=21	=21	=21	=21	=21	=21	=21	=21
(2GG/	4e/	(>16c\LL	.	.	4ee\	dum-	.	.
.	.	16A\	.	.	.	.	.	.
.	.	16G\	.	.	.	.	.	.
.	.	16D\JJ)	.	.	.	.	.	.
.	4e/	(>16c\LL	.	.	8dd\	-ka	.	.
.	.	16A\	.	.	.	.	.	.
.	.	16G\	.	.	8cc\	u-	.	.
.	.	16E\JJ)	.	.	.	.	.	.
=22	=22	=22	=22	=22	=22	=22	=22	=22
2GGG/)	4d/	(>16B\LL	.	.	4dd\	-nie-	.	.
.	.	16A\	.	.	.	.	.	.
.	.	16G\	.	.	.	.	.	.
.	.	16D\JJ)	.	.	.	.	.	.
.	4d/	(>16B\LL	.	.	8b\	-sie,	.	.
.	.	16A\	.	.	.	.	.	.
.	.	16G\	.	.	8g/	wnet	.	.
.	.	16D\JJ)	.	.	.	.	.	.
!!LO:LB:g=original
=23	=23	=23	=23	=23	=23	=23	=23	=23
(4CC/	4e/	(>16c\LL	.	.	8ee\	ser-	.	.
.	.	16B\	.	.	.	.	.	.
.	.	16A\	.	.	8ee\	-cu	.	.
.	.	16E\JJ)	.	.	.	.	.	.
*	*	*	*below	*	*	*	*	*
4EE/	4e/	(>16B\LL	2	.	8dd\	ko-	.	.
.	.	16A\	1	.	.	.	.	.
.	.	16G#X\	2	.	8b\	-chać	.	.
.	.	16E\JJ)	.	.	.	.	.	.
=24	=24	=24	=24	=24	=24	=24	=24	=24
4AA/	4f#/	(>16c\LL	.	.	8cc\	chce	.	.
.	.	16B\	.	.	.	.	.	.
.	.	16A\	.	.	8cc\	się	.	.
.	.	16E\JJ)	.	.	.	.	.	.
4DD/	4d/	(>16F#X\LL	.	.	8dd\	i	.	.
.	.	16A\	.	.	.	.	.	.
.	.	16F#\	.	.	8cc\	tę-	.	.
.	.	16D\JJ)	.	.	.	.	.	.
=25	=25	=25	=25	=25	=25	=25	=25	=25
4GG/	4d/	(>16G\LL	.	.	4b\	-skno-	.	.
.	.	16B\	.	.	.	.	.	.
.	.	16G\	.	.	.	.	.	.
.	.	16D\JJ)	.	.	.	.	.	.
4BBB/	4d#X/	(>16A\LL	.	.	8a/	-ta	.	.
.	.	16B\	.	.	.	.	.	.
.	.	16A\	.	.	8b\	o-	.	.
.	.	16F#\JJ)	.	.	.	.	.	.
=26	=26	=26	=26	=26	=26	=26	=26	=26
4EE/)	4e/	(>16G\LL	.	.	(4.g/	-gar-	.	.
.	.	16B\	.	.	.	.	.	.
.	.	16G\	.	.	.	.	.	.
.	.	16E\JJ)	.	.	.	.	.	.
8EE'/L	4e/	(>16G\LL	.	.	.	.	.	.
.	.	16B\	.	.	.	.	.	.
8EE'/J	.	16G\	.	.	8f#/)	.	.	.
.	.	16E\JJ)	.	.	.	.	.	.
=27	=27	=27	=27	=27	=27	=27	=27	=27
(8.EE/L	4e/	(>16G\LL	.	.	8e/	-nie	.	.
.	.	16B\	.	.	.	.	.	.
.	.	16G\	.	.	8r	.	.	.
32FF#/LL	.	16E\JJ)	.	.	.	.	.	.
32GG/JJJ	.	.	.	.	.	.	.	.
8.AA/L	4e/	(>16A\LL	.	.	8r	.	.	.
.	.	16c\	.	.	.	.	.	.
.	.	16A\	.	.	8e/	Tyś	.	.
32GG/LL	.	16E\JJ)	.	.	.	.	.	.
32FF#/JJJ)	.	.	.	.	.	.	.	.
=28	=28	=28	=28	=28	=28	=28	=28	=28
(4EE/	4e/	(>16G\LL	.	.	8ee\	po-	.	.
.	.	16c\	.	.	.	.	.	.
.	.	16G\	.	.	8ee\	-ka-	.	.
.	.	16E\JJ)	.	.	.	.	.	.
4FF#/	4d/	(>16A\LL	.	.	8dd\	-ra-	.	.
.	.	16c\	.	.	.	.	.	.
.	.	16A\	.	.	8cc\	-niem	.	.
.	.	16D\JJ)	.	.	.	.	.	.
!!LO:LB:g=original
=29	=29	=29	=29	=29	=29	=29	=29	=29
4GG/	4d/	(>16G\LL	.	.	8dd\	Bo-	.	.
.	.	16B\	.	.	.	.	.	.
.	.	16G\	.	.	16bL\	-żem,	.	.
.	.	16D\JJ)	.	.	16ccJ\	.	.	.
8.GG#^/L	4fn/	(>16B\LL	.	.	8dd\	z  to-	.	.
.	.	16d\	.	.	.	.	.	.
.	.	16B\	.	.	8b\	-bą	.	.
32AA/LL	.	16Fn\JJ)	.	.	.	.	.	.
32BB/JJJ	.	.	.	.	.	.	.	.
=30	=30	=30	=30	=30	=30	=30	=30	=30
4C/	4e/	(>16A\LL	.	.	4ee\	jak	.	.
.	.	16c\	.	.	.	.	.	.
.	.	16A\	.	.	.	.	.	.
.	.	16E\JJ)	.	.	.	.	.	.
4BB/	4e/	(>16G#X\LL	.	.	8dd\	z os-	.	.
.	.	16d\	.	.	.	.	.	.
.	.	16G#\	.	.	8b\	-trym	.	.
.	.	16E\JJ)	.	.	.	.	.	.
=31	=31	=31	=31	=31	=31	=31	=31	=31
4AA/	4e/	(>16A\LL	.	.	8cc\	no-	.	.
.	.	16c\	.	.	.	.	.	.
.	.	16A\	.	.	8a/	-żem	.	.
.	.	16E\JJ)	.	.	.	.	.	.
4DD/)	4f#/	(>16c\LL	.	.	8dd\	nie	.	.
.	.	16d\	.	.	.	.	.	.
.	.	16c\	.	.	8cc\	żar-	.	.
.	.	16A\JJ)	.	.	.	.	.	.
=32	=32	=32	=32	=32	=32	=32	=32	=32
(4GG/	4g/	(>16B\LL	.	.	4b\	-to-	.	.
.	.	16d\	.	.	.	.	.	.
.	.	16B\	.	.	.	.	.	.
.	.	16G\JJ)	.	.	.	.	.	.
4CC#X/	(>16B-X\LL	4ryy	.	.	8g/	-wać	.	.
.	16A\	.	.	.	.	.	.	.
.	16G\	.	.	.	8ee\	bez-	.	.
.	16e\JJ	.	.	.	.	.	.	.
*	*v	*v	*	*	*	*	*	*
=33	=33	=33	=33	=33	=33	=33	=33
4DD/)	16Bn\LL	.	.	2dd\	-kar-	.	.
.	16A\	.	.	.	.	.	.
.	16G\	.	.	.	.	.	.
.	16d\JJ	.	.	.	.	.	.
4DD/	16A\LL	.	.	.	.	.	.
.	16G\	.	.	.	.	.	.
.	16F#\	.	.	.	.	.	.
.	[16d\JJ)	.	.	.	.	.	.
=34	=34	=34	=34	=34	=34	=34	=34
*	*^	*	*	*	*	*	*
4GG'/	4d/]	(>16B\LL	.	.	4g/	-nie.	.	.
.	.	16A\	.	.	.	.	.	.
.	.	16G\	.	.	.	.	.	.
.	.	16D\JJ)	.	.	.	.	.	.
8GG'/L	4d/	(>16B\LL	.	.	4r	.	.	.
.	.	16A\	.	.	.	.	.	.
8GG'/J	.	16G\	.	.	.	.	.	.
.	.	16D\JJ)	.	.	.	.	.	.
!!LO:LB:g=original
=35	=35	=35	=35	=35	=35	=35	=35	=35
(8.GG/L	4d/	(>16B\LL	.	.	2r	.	.	.
.	.	16A\	.	.	.	.	.	.
.	.	16G\	.	.	.	.	.	.
32FF#/LL	.	16D\JJ)	.	.	.	.	.	.
32EE/JJJ	.	.	.	.	.	.	.	.
8.DD/L	4d/	(>16c\LL	.	.	.	.	.	.
.	.	16B\	.	.	.	.	.	.
.	.	16A\	.	.	.	.	.	.
32EE/LL	.	16D\JJ)	.	.	.	.	.	.
32FF#/JJJ)	.	.	.	.	.	.	.	.
=36	=36	=36	=36	=36	=36	=36	=36	=36
4GG'/	4e/	(>16B\LL	.	.	2r	.	.	.
.	.	16A\	.	.	.	.	.	.
.	.	16G\	.	.	.	.	.	.
.	.	16D\JJ)	.	.	.	.	.	.
8GG'/L	4d/	(>16B-X\LL	.	.	.	.	.	.
.	.	16A\	.	.	.	.	.	.
8GG'/J	.	16G\	.	.	.	.	.	.
.	.	16D\JJ)	.	.	.	.	.	.
=37	=37	=37	=37	=37	=37	=37	=37	=37
(8.GG/L	4d/	(>16B-X\LL	.	.	2r	.	.	.
.	.	16A\	.	.	.	.	.	.
.	.	16G\	.	.	.	.	.	.
32AA/LL	.	16D\JJ)	.	.	.	.	.	.
32BB-X/JJJ	.	.	.	.	.	.	.	.
8.C/L	4d/	(>16c\LL	.	.	.	.	.	.
.	.	16A\	.	.	.	.	.	.
.	.	16G\	.	.	.	.	.	.
32BB-/LL	.	16E-X\JJ)	.	.	.	.	.	.
32AA/JJJ)	.	.	.	.	.	.	.	.
*	*v	*v	*	*	*	*	*	*
=38||	=38||	=38||	=38||	=38||	=38||	=38||	=38||
*k[fnb-e-]	*k[fnb-e-]	*	*	*k[fnb-e-]	*	*	*
*	*^	*	*	*	*	*	*
4GG'/	4d/	(>16B-\LL	.	.	4r	.	.	.
.	.	16A\	.	.	.	.	.	.
.	.	16G\	.	.	.	.	.	.
.	.	16D\JJ)	.	.	.	.	.	.
8GG'/L	4d/	(>16B-\LL	.	.	8r	.	.	.
.	.	16A\	.	.	.	.	.	.
8GG'/J	.	16G\	.	.	8d/	Bo	.	.
.	.	16D\JJ)	.	.	.	.	.	.
=39	=39	=39	=39	=39	=39	=39	=39	=39
[2GG/	4d/	(>16B-\LL	.	.	4.dd\	no-	.	.
.	.	16A\	.	.	.	.	.	.
.	.	16G\	.	.	.	.	.	.
.	.	16D\JJ)	.	.	.	.	.	.
.	4d/	(>16A\LL	.	.	.	.	.	.
.	.	16G\	.	.	.	.	.	.
.	.	16F#X\	.	.	8cc\	-że	.	.
.	.	16D\JJ)	.	.	.	.	.	.
=40	=40	=40	=40	=40	=40	=40	=40	=40
2GG/_	4d/	(>16B-\LL	.	.	(>4b-\	cia-	.	.
.	.	16A\	.	.	.	.	.	.
.	.	16G\	.	.	.	.	.	.
.	.	16D\JJ)	.	.	.	.	.	.
.	4d/	(>16B-\LL	.	.	8a/)	.	.	.
.	.	16A\	.	.	.	.	.	.
.	.	16G\	.	.	8g/	-ło	.	.
.	.	16D\JJ)	.	.	.	.	.	.
!!LO:PB:g=original
=41	=41	=41	=41	=41	=41	=41	=41	=41
2GG/_	4d/	(>16c\LL	.	.	4f#X/	bo-	.	.
.	.	16B-\	.	.	.	.	.	.
.	.	16A\	.	.	.	.	.	.
.	.	16D\JJ)	.	.	.	.	.	.
.	4d/	(>16c\LL	.	.	8en/	-dą,	.	.
.	.	16B-\	.	.	.	.	.	.
.	.	16A\	.	.	8f#/	a	.	.
.	.	16D\JJ)	.	.	.	.	.	.
=42	=42	=42	=42	=42	=42	=42	=42	=42
2GG/]	4d/	(>16B-\LL	.	.	8g/	pion-	.	.
.	.	16A\	.	.	.	.	.	.
.	.	16G\	.	.	8g/	-ska	.	.
.	.	16D\JJ)	.	.	.	.	.	.
.	4d/	(>16A\LL	.	.	8a/	du-	.	.
.	.	16G\	.	.	.	.	.	.
.	.	16F#X\	.	.	8a/	-szę	.	.
.	.	16D\JJ)	.	.	.	.	.	.
=43	=43	=43	=43	=43	=43	=43	=43	=43
(4GG/	4d/	(>16B-\LL	.	.	8b-\	mło-	.	.
.	.	16A\	.	.	.	.	.	.
.	.	16G\	.	.	8dd\	-dą	.	.
.	.	16B-\JJ)	.	.	.	.	.	.
*	*	*	*above	*	*	*	*	*
4BBB-/	4g/	(>16d\LL	3 5	.	8g/	jak-	.	.
.	.	16c\	1	.	.	.	.	.
.	.	16B-\	2	.	8b-\	-by	.	.
.	.	16d\JJ	3	.	.	.	.	.
=44	=44	=44	=44	=44	=44	=44	=44	=44
4CC/	4e-/	16c\LL	1 4	.	4a/	os-	.	.
.	.	16d\	.	.	.	.	.	.
.	.	16c\	.	.	.	.	.	.
.	.	16B-\JJ	3	.	.	.	.	.
4DD/	4d/	16A\LL	.	.	8f#X/	-trzem	.	.
.	.	16G\	.	.	.	.	.	.
.	.	16F#X\	.	.	8d/	prze-	.	.
.	.	16D\JJ)	.	.	.	.	.	.
=45	=45	=45	=45	=45	=45	=45	=45	=45
4GGG/)	4d/	(>16B-\LL	.	.	8g/	-ni-	.	.
.	.	16A\	.	.	.	.	.	.
.	.	16G\	.	.	8g/	-ka,	.	.
.	.	16D\JJ)	.	.	.	.	.	.
8GG'/L	4d/	(>16Bn\LL	.	.	4r	.	.	.
.	.	16A\	.	.	.	.	.	.
8GG'/J	.	16G\	.	.	.	.	.	.
.	.	16D\JJ)	.	.	.	.	.	.
!!LO:LB:g=original
=46	=46	=46	=46	=46	=46	=46	=46	=46
(8.GG/L	4d/	(>16B-\LL	.	.	8r	.	.	.
.	.	16A\	.	.	.	.	.	.
.	.	16G\	.	.	8g/	a	.	.
32EE-/LL	.	16D\JJ)	.	.	.	.	.	.
32DD/JJJ	.	.	.	.	.	.	.	.
8.CC/L	4d/	(>16c\LL	.	.	8.ee-\	gor-	.	.
.	.	16A\	.	.	.	.	.	.
.	.	16G\	.	.	.	.	.	.
32EE-/LL	.	16D\JJ)	.	.	16dd\	-sze	.	.
32FF/JJJ)	.	.	.	.	.	.	.	.
=47	=47	=47	=47	=47	=47	=47	=47	=47
4GG/	4d/	(>16B-\LL	.	.	(>4dd\	jesz-	.	.
.	.	16A\	.	.	.	.	.	.
.	.	16G\	.	.	.	.	.	.
.	.	16D\JJ)	.	.	.	.	.	.
8GG'/L	4d/	(>16B-\LL	.	.	8b-\)	.	.	.
.	.	16A\	.	.	.	.	.	.
8GG'/J	.	16G\	.	.	8g/	-cze	.	.
.	.	16D\JJ)	.	.	.	.	.	.
=48	=48	=48	=48	=48	=48	=48	=48	=48
[2GG/	4d/	(>16c\LL	.	.	8f#X/	bie-	.	.
.	.	16B-\	.	.	.	.	.	.
.	.	16A\	.	.	8a/	-da,	.	.
.	.	16D\JJ)	.	.	.	.	.	.
.	4d/	(>16A\LL	.	.	8r	.	.	.
.	.	16G\	.	.	.	.	.	.
.	.	16F#X\	.	.	8d/	że	.	.
.	.	16D\JJ)	.	.	.	.	.	.
=49	=49	=49	=49	=49	=49	=49	=49	=49
(4GG/]	4d/	(>16B-\LL	.	.	8g/	świat	.	.
.	.	16A\	.	.	.	.	.	.
.	.	16G\	1	.	8g/	i	.	.
.	.	16B-\JJ)	2	.	.	.	.	.
4FF/	4f/	(>16e-\LL	.	.	8a/	wia-	.	.
.	.	16d\	.	.	.	.	.	.
.	.	16c\	.	.	8a/	-ry	.	.
.	.	16F\JJ)	.	.	.	.	.	.
=50	=50	=50	=50	=50	=50	=50	=50	=50
4BB-/	4f/	(>16d\LL	.	.	8b-\	nie-	.	.
.	.	16c\	.	.	.	.	.	.
.	.	16B-\	.	.	8dd\	-da:	.	.
.	.	16F\JJ)	.	.	.	.	.	.
4DD/	4f/	(>16d\LL	.	.	8fn/	co	.	.
.	.	16c\	.	.	.	.	.	.
.	.	16B-\	.	.	8b-\	tam	.	.
.	.	16F\JJ)	.	.	.	.	.	.
!!LO:LB:g=original
=51	=51	=51	=51	=51	=51	=51	=51	=51
4EE-/	4g/	(>16c\LL	.	.	4g/	w du-	.	.
.	.	16d\	.	.	.	.	.	.
.	.	16c\	.	.	.	.	.	.
.	.	16G\JJ)	.	.	.	.	.	.
4FF/	4f/	(>16c\LL	.	.	8a/	-szy	.	.
.	.	16d\	.	.	.	.	.	.
.	.	16c\	.	.	8a/	lir-	.	.
.	.	16F\JJ)	.	.	.	.	.	.
=52	=52	=52	=52	=52	=52	=52	=52	=52
4BBB-/)	4f/	(>16d\LL	.	.	8cc\	-ni-	.	.
.	.	16c\	.	.	.	.	.	.
.	.	16B-\	.	.	8b-\	-ka?	.	.
.	.	16F\JJ)	.	.	.	.	.	.
8BB-'/L	4f/	(>16d\LL	.	.	4r	.	.	.
.	.	16c\	.	.	.	.	.	.
8BB-'/J	.	16B-\	.	.	.	.	.	.
.	.	16F\JJ)	.	.	.	.	.	.
=53	=53	=53	=53	=53	=53	=53	=53	=53
8BB-/L	4f/	(>16d\LL	.	.	2r	.	.	.
.	.	16c\	.	.	.	.	.	.
16r	.	16B-\	.	.	.	.	.	.
(32D/LL	.	16F\JJ)	.	.	.	.	.	.
32C/JJJ	.	.	.	.	.	.	.	.
8.BB-/L	4g/	(>16d\LL	.	.	.	.	.	.
.	.	16c\	.	.	.	.	.	.
.	.	16B-\	.	.	.	.	.	.
32AA/LL	.	16G\JJ)	.	.	.	.	.	.
32GG/JJJ)	.	.	.	.	.	.	.	.
=54	=54	=54	=54	=54	=54	=54	=54	=54
(2FF#X/	4e-/	(>16A\LL	.	.	4ee-^\	Co	.	.
.	.	16c\	.	.	.	.	.	.
.	.	16A\	.	.	.	.	.	.
.	.	16E-\JJ)	.	.	.	.	.	.
.	4d/	(>16A\LL	.	.	8dd\	o-	.	.
.	.	16c\	.	.	.	.	.	.
.	.	16A\	.	.	8cc#X\	-ni	.	.
.	.	16D\JJ)	.	.	.	.	.	.
=55	=55	=55	=55	=55	=55	=55	=55	=55
2FFn/	4d/	(>16G\LL	.	.	8dd\	wie-	.	.
.	.	16Bn\	.	.	.	.	.	.
.	.	16G\	.	.	8g/	-dzieć	.	.
.	.	16D\JJ)	.	.	.	.	.	.
.	4d/	(>16G\LL	.	.	8bn\	mo-	.	.
.	.	16B\	.	.	.	.	.	.
.	.	16G\	.	.	8dd\	-gą,	.	.
.	.	16D\JJ)	.	.	.	.	.	.
!!LO:LB:g=original
=56	=56	=56	=56	=56	=56	=56	=56	=56
4EE-/	4c/	(>16G\LL	.	.	4cc^\	że	.	.
.	.	16A\	.	.	.	.	.	.
.	.	16G\	.	.	.	.	.	.
.	.	16C\JJ)	.	.	.	.	.	.
4DD/)	4d/	(>16F#X\LL	.	.	8b-X\	mi	.	.
.	.	16A\	.	.	.	.	.	.
.	.	16F#\	.	.	8a/	tak	.	.
.	.	16D\JJ)	.	.	.	.	.	.
=57	=57	=57	=57	=57	=57	=57	=57	=57
8GG'/L	4d/	(>16G\LL	.	<	8b-\	w pier-	.	.
.	.	16B-\	.	.	.	.	.	.
8FF'/	.	16G\	.	.	8d/	-siach:	.	.
.	.	16D\JJ)	.	.	.	.	.	.
8EE-'/	4d/	(>16G\LL	.	.	8g/	bło-	.	.
.	.	16B-\	.	.	.	.	.	.
8DD'/J	.	16G\	.	.	8b-\	-go,	.	.
.	.	16D\JJ)	.	[	.	.	.	.
=58	=58	=58	=58	=58	=58	=58	=58	=58
(4CC/	4e-/	(>16c\LL	.	>	4a/	że	.	.
.	.	16B-\	.	.	.	.	.	.
.	.	16A\	.	.	.	.	.	.
.	.	16D\JJ)	.	.	.	.	.	.
4CC#X/	4en/	(>16G\LL	.	.	8a/	mnie	.	.
.	.	16A\	.	]	.	.	.	.
.	.	16G\	.	.	8g/	tak	.	.
.	.	16En\JJ)	.	.	.	.	.	.
=59	=59	=59	=59	=59	=59	=59	=59	=59
8DD/)	4d/	(>16F#X\LL	.	.	8.f#X/	chęt-	.	.
.	.	16A\	.	.	.	.	.	.
8r	.	16F#\	.	.	.	.	.	.
.	.	16D\JJ)	.	.	16g/	-ka	.	.
8DD'/L	4d/	(>16F#\LL	.	.	8a/	bo-	.	.
.	.	16A\	.	.	.	.	.	.
8DD'/J	.	16F#\	.	.	8dd\	-dzie	.	.
.	.	16D\JJ)	.	.	.	.	.	.
=60	=60	=60	=60	=60	=60	=60	=60	=60
8.DD#X/L	4d/	(>16F#X\LL	.	.	8a/	grać:	.	.
.	.	16A\	.	.	.	.	.	.
.	.	16F#\	.	.	8r	.	.	.
(32FF#X/LL	.	16D\JJ)	.	.	.	.	.	.
32GG/JJJ	.	.	.	.	.	.	.	.
8AA/L)	4d/	(>16F#\LL	.	.	8r	.	.	.
.	.	16A\	.	.	.	.	.	.
16r	.	16F#\	.	.	8dd\	od	.	.
(32AA/LL	.	16D\JJ)	.	.	.	.	.	.
32BB-/JJJ)	.	.	.	.	.	.	.	.
!!LO:PB:g=original
=61	=61	=61	=61	=61	=61	=61	=61	=61
(>2CC/ 2C	4e-/	(>16B-\LL	.	.	4ffn^\	ser-	.	.
.	.	16A\	.	.	.	.	.	.
.	.	16G\	.	.	.	.	.	.
.	.	16D\JJ	.	.	.	.	.	.
.	16c\LL	4ryy	.	.	8ee-\	-ca	.	.
.	16e-\	.	.	.	.	.	.	.
.	16c\	.	.	.	8dd\	grać	.	.
.	16G\JJ)	.	.	.	.	.	.	.
=62	=62	=62	=62	=62	=62	=62	=62	=62
2FF/)	4e-/	(>16B-\LL	.	.	8dd\	wie-	.	.
.	.	16A\	.	.	.	.	.	.
.	.	16G\	.	.	8cc\	-le,	.	.
.	.	16D\JJ)	.	.	.	.	.	.
.	4e-/	(>16B-\LL	.	.	8b-\	Pa-	.	.
.	.	16A\	.	.	.	.	.	.
.	.	16G\	.	.	8cc\	-nu	.	.
.	.	16D\JJ)	.	.	.	.	.	.
=63	=63	=63	=63	=63	=63	=63	=63	=63
(4BB-/	4d/	(>16c\LL	.	.	4dd\	Bo-	.	.
.	.	16B-\	.	.	.	.	.	.
.	.	16A\	.	.	.	.	.	.
.	.	16D\JJ)	.	.	.	.	.	.
4EEn/	4d/	(>16A\LL	.	.	8cc\	-gu	.	.
.	.	16G\	.	.	.	.	.	.
.	.	16F#X\	.	.	8b-\	w ko-	.	.
.	.	16D\JJ)	.	.	.	.	.	.
=64	=64	=64	=64	=64	=64	=64	=64	=64
4AA/	4c/	(>16B-\LL	.	.	8b-\	-ście-	.	.
.	.	16A\	.	.	.	.	.	.
.	.	16G\	.	.	8a/	-le,	.	.
.	.	16B-\JJ)	.	.	.	.	.	.
4DD/	4c/	(>16e-\LL	.	.	8a/	do-	.	.
.	.	16d\	.	.	.	.	.	.
.	.	16c\	.	.	16g/LL	-brym	.	.
.	.	16F\JJ)	.	.	16a/JJ	.	.	.
*	*v	*v	*	*	*	*	*	*
=65	=65	=65	=65	=65	=65	=65	=65
!	!	!	!	!LO:TX:a:i:t=dolcissimo	!	!	!
4GG/	(>16G\LL	.	.	8bn/L	lu-	.	.
.	16Bn\	.	.	.	.	.	.
.	16G\	.	.	8a/J	.	.	.
.	16D\JJ	.	.	.	.	.	.
4CC#X/	16B-X\LL	.	.	8g/	-dziom	.	.
.	16A\	.	.	.	.	.	.
.	16G\	.	.	8een\	w go-	.	.
.	16en\JJ	.	.	.	.	.	.
!!LO:LB:g=original
=66	=66	=66	=66	=66	=66	=66	=66
[4DD/)	16Bn\LL	.	.	2dd\	-spo-	.	.
.	16A\	.	.	.	.	.	.
.	16G\	.	.	.	.	.	.
.	16d\JJ	.	.	.	.	.	.
8DD/]	16A\LL	.	.	.	.	.	.
.	16G\	.	.	.	.	.	.
8r	16F#X\	.	.	.	.	.	.
.	[16d\JJ)	.	.	.	.	.	.
=67||	=67||	=67||	=67||	=67||	=67||	=67||	=67||
*k[bnenf#]	*k[bnenf#]	*	*	*k[bnenf#]	*	*	*
*	*^	*	*	*	*	*	*
4GG'/	4d/]	(>16B\LL	.	.	4g/	-dzie;	.	.
.	.	16A\	.	.	.	.	.	.
.	.	16G\	.	.	.	.	.	.
.	.	16D\JJ)	.	.	.	.	.	.
8GG'/L	4d/	(>16B\LL	.	.	4r	.	.	.
.	.	16A\	.	.	.	.	.	.
8GG'/J	.	16G\	.	.	.	.	.	.
.	.	16D\JJ)	.	.	.	.	.	.
=68	=68	=68	=68	=68	=68	=68	=68	=68
(8.GG/L	4d/	(>16B\LL	.	.	2r	.	.	.
.	.	16A\	.	.	.	.	.	.
.	.	16G\	.	.	.	.	.	.
32FF#/LL	.	16D\JJ)	.	.	.	.	.	.
32EE/JJJ	.	.	.	.	.	.	.	.
8.DD/L	4d/	(>16c\LL	.	.	.	.	.	.
.	.	16A\	.	.	.	.	.	.
.	.	16G\	.	.	.	.	.	.
32EE/LL	.	16D\JJ)	.	.	.	.	.	.
32FF#/JJJ)	.	.	.	.	.	.	.	.
=69	=69	=69	=69	=69	=69	=69	=69	=69
4GG'/	4d/	(>16B\LL	.	.	2r	.	.	.
.	.	16A\	.	.	.	.	.	.
.	.	16G\	.	.	.	.	.	.
.	.	16D\JJ)	.	.	.	.	.	.
8GG'/L	4d/	(>16B\LL	.	.	.	.	.	.
.	.	16A\	.	.	.	.	.	.
8GG'/J	.	16G\	.	.	.	.	.	.
.	.	16D\JJ)	.	.	.	.	.	.
=70	=70	=70	=70	=70	=70	=70	=70	=70
(8.GG/L	4d/	(>16B\LL	.	.	4r	.	.	.
.	.	16A\	.	.	.	.	.	.
.	.	16G\	.	.	.	.	.	.
32FF#/LL	.	16D\JJ)	.	.	.	.	.	.
32EE/JJJ	.	.	.	.	.	.	.	.
!	!	!	!	!	!LO:TX:a:i:t=dolce	!	!	!
8.DD/L	4d/	(>16c\LL	.	.	8dd\	grać	.	.
.	.	16A\	.	.	.	.	.	.
.	.	16G\	.	.	8cc\	przed	.	.
32EE/LL	.	16D\JJ)	.	.	.	.	.	.
32FF#/JJJ)	.	.	.	.	.	.	.	.
!!LO:LB:g=original
=71	=71	=71	=71	=71	=71	=71	=71	=71
[2GG/	4d/	(>16B\LL	.	.	4b\	mo-	.	.
.	.	16A\	.	.	.	.	.	.
.	.	16G\	.	.	.	.	.	.
.	.	16D\JJ)	.	.	.	.	.	.
.	4d/	(>16c\LL	.	.	8a/	-ją	.	.
.	.	16A\	.	.	.	.	.	.
.	.	16G\	.	.	8g/	je-	.	.
.	.	16D\JJ)	.	.	.	.	.	.
=72	=72	=72	=72	=72	=72	=72	=72	=72
2GG/_	4d/	(>16c\LL	.	.	8f#/	-dy-	.	.
.	.	16A\	.	.	.	.	.	.
.	.	16G\	.	.	8f#/	-ną	.	.
.	.	16D\JJ)	.	.	.	.	.	.
.	4d/	(>16c\LL	.	.	8e/	niech	.	.
.	.	16A\	.	.	.	.	.	.
.	.	16G\	.	.	8d/	ją	.	.
.	.	16D\JJ)	.	.	.	.	.	.
=73	=73	=73	=73	=73	=73	=73	=73	=73
2GG/_	4d/	(>16B\LL	.	.	4g/	piosn-	.	.
.	.	16A\	.	.	.	.	.	.
.	.	16G\	.	.	.	.	.	.
.	.	16D\JJ)	.	.	.	.	.	.
.	4d/	(>16c\LL	.	.	8a/	-ki	.	.
.	.	16A\	.	.	.	.	.	.
.	.	16G\	.	.	8a/	ob-	.	.
.	.	16D\JJ)	.	.	.	.	.	.
=74	=74	=74	=74	=74	=74	=74	=74	=74
(4GG/]	4d/	(>16B\LL	.	.	8b\	-wi-	.	.
.	.	16A\	.	.	.	.	.	.
.	.	16G\	.	.	8dd\	-ną,	.	.
.	.	16D\JJ)	.	.	.	.	.	.
!	!	!	!	!	!	!	!	!LO:DY:a
4BBB/	4d/	(>16B\LL	.	.	8g/	niech	.	p
.	.	16A\	.	.	.	.	.	.
.	.	16G\	.	.	8b\	ją	.	.
.	.	16D\JJ)	.	.	.	.	.	.
=75	=75	=75	=75	=75	=75	=75	=75	=75
4CC/	4e/	(>16c\LL	.	.	4e/	dźwię-	.	.
.	.	16A\	.	.	.	.	.	.
.	.	16G\	.	.	.	.	.	.
.	.	16D\JJ)	.	.	.	.	.	.
4DD/	4d/	(>16c\LL	.	.	8f#/	-kiem	.	.
.	.	16A\	.	.	.	.	.	.
.	.	16G\	.	.	8f#/	o-	.	.
.	.	16D\JJ)	.	.	.	.	.	.
!!LO:LB:g=original
=76	=76	=76	=76	=76	=76	=76	=76	=76
4GGG/)	4d/	(>16B\LL	.	.	8g/	-to-	.	.
.	.	16A\	.	.	.	.	.	.
.	.	16G\	.	.	8g/	-czą,	.	.
.	.	16D\JJ)	.	.	.	.	.	.
8GG'/L	4d/	(>16B\LL	.	.	4r	.	.	.
.	.	16A\	.	.	.	.	.	.
8GG'/J	.	16G\	.	.	.	.	.	.
.	.	16D\JJ)	.	.	.	.	.	.
=77	=77	=77	=77	=77	=77	=77	=77	=77
(8.GG/L	4d/	(>16B\LL	.	.	4r	.	.	.
.	.	16A\	.	.	.	.	.	.
.	.	16G\	.	.	.	.	.	.
32FF#/LL	.	16D\JJ)	.	.	.	.	.	.
32EE/JJJ	.	.	.	.	.	.	.	.
!	!	!	!	!	!	!	!	!LO:DY:a
8.DD/L	4d/	(>16c\LL	.	.	8dd\	czy	.	pp
.	.	16A\	.	.	.	.	.	.
.	.	16G\	.	.	8cc\	pra-	.	.
32EE/LL	.	16D\JJ)	.	.	.	.	.	.
32FF#/JJJ)	.	.	.	.	.	.	.	.
=78	=78	=78	=78	=78	=78	=78	=78	=78
4GG'/	4d/	(>16B\LL	.	.	4b\	-cu-	.	.
.	.	16A\	.	.	.	.	.	.
.	.	16G\	.	.	.	.	.	.
.	.	16D\JJ)	.	.	.	.	.	.
8GG'/L	4d/	(>16B\LL	.	.	8a/	-je	.	.
.	.	16A\	.	.	.	.	.	.
8GG'/J	.	16G\	.	.	8g/	we	.	.
.	.	16D\JJ)	.	.	.	.	.	.
=79	=79	=79	=79	=79	=79	=79	=79	=79
2GG/	4d/	(>16B\LL	.	.	8g/	źni-	.	.
.	.	16A\	.	.	.	.	.	.
.	.	16G\	.	.	8f#/	-wa,	.	.
.	.	16D\JJ)	.	.	.	.	.	.
.	4d/	(>16c\LL	.	.	8e/	czy	.	.
.	.	16A\	.	.	.	.	.	.
.	.	16G\	.	.	8d/	po	.	.
.	.	16D\JJ)	.	.	.	.	.	.
=80	=80	=80	=80	=80	=80	=80	=80	=80
(4GG/	4d/	(>16B\LL	.	.	4g/	pra-	.	.
.	.	16A\	.	.	.	.	.	.
.	.	16G\	.	.	.	.	.	.
.	.	16D\JJ)	.	.	.	.	.	.
4DD/	4d/	(>16F#\LL	.	.	8a/	-cy	.	.
.	.	16A\	.	.	.	.	.	.
.	.	16F#\	.	.	8a/	spo-	.	.
.	.	16D\JJ)	.	.	.	.	.	.
!!LO:PB:g=original
=81	=81	=81	=81	=81	=81	=81	=81	=81
*	*	*	*	*	*^	*	*	*
!	!	!	!	!	!LO:TX:a:i:t=dolcissimo	!	!	!	!
4GG/	4d/	(>16B\LL	.	.	8b/	8b\	-czy-	.	.
.	.	16A\	.	.	.	.	.	.	.
.	.	16G\	.	.	8gg/	8dd\	-wa,	.	.
.	.	16D\JJ)	.	.	.	.	.	.	.
4EE/	4d/	(>16B\LL	.	.	8dd/	8b\	czy	.	.
.	.	16A\	.	.	.	.	.	.	.
.	.	16G\	.	.	8b/	8g\	się	.	.
.	.	16D\JJ)	.	.	.	.	.	.	.
*	*	*	*	*	*v	*v	*	*	*
=82	=82	=82	=82	=82	=82	=82	=82	=82
4CC/	4e/	(>16c\LL	.	.	8.a/L	ba-	.	.
.	.	16A\	.	.	.	.	.	.
.	.	16G\	.	.	.	.	.	.
.	.	16D\JJ)	.	.	32b/LL	.	.	.
.	.	.	.	.	32a/JJJ	.	.	.
4DD/)	4d/	(>16c\LL	.	.	8f#/	-wi	.	.
.	.	16A\	.	.	.	.	.	.
.	.	16G\	.	.	8d/	o-	.	.
.	.	16D\JJ)	.	.	.	.	.	.
=83	=83	=83	=83	=83	=83	=83	=83	=83
4GG'/	4d/	(>16B\LL	.	.	8g/	-cho-	.	.
.	.	16A\	.	.	.	.	.	.
.	.	16G\	.	.	8g/	-czo.	.	.
.	.	16D\JJ)	.	.	.	.	.	.
8GG'/L	4d/	(>16B\LL	.	.	4r	.	.	.
.	.	16A\	.	.	.	.	.	.
8GG'/J	.	16G\	.	.	.	.	.	.
.	.	16D\JJ)	.	.	.	.	.	.
=84	=84	=84	=84	=84	=84	=84	=84	=84
(8.GG/L	4d/	(>16B\LL	.	.	4r	.	.	.
.	.	16A\	.	.	.	.	.	.
.	.	16G\	.	.	.	.	.	.
32EE/LL	.	16D\JJ)	.	.	.	.	.	.
32DD/JJJ	.	.	.	.	.	.	.	.
8.CC/L	4e/	(>16c\LL	.	.	8g/	Patrz-	.	.
.	.	16A\	.	.	.	.	.	.
.	.	16G\	.	.	8g/	-cie!	.	.
32EE/LL	.	16E\JJ)	.	.	.	.	.	.
32FF#X/JJJ)	.	.	.	.	.	.	.	.
=85	=85	=85	=85	=85	=85	=85	=85	=85
(2GG/	4e/	(>16c\LL	.	.	4ee^\	patrz-	.	.
.	.	16A\	.	.	.	.	.	.
.	.	16G\	.	.	.	.	.	.
.	.	16E\JJ)	.	.	.	.	.	.
.	4e/	(>16c\LL	.	.	8dd\	-cie	.	.
.	.	16A\	.	.	.	.	.	.
.	.	16G\	.	.	8cc\	na	.	.
.	.	16E\JJ)	.	.	.	.	.	.
!!LO:LB:g=original
=86	=86	=86	=86	=86	=86	=86	=86	=86
2GGG/)	4d/	(>16B\LL	.	.	8dd\	Dzie-	.	.
.	.	16A\	.	.	.	.	.	.
.	.	16G\	.	.	8dd\	-wę	.	.
.	.	16D\JJ)	.	.	.	.	.	.
.	4d/	(>16B\LL	.	.	8b\	mo-	.	.
.	.	16A\	.	.	.	.	.	.
.	.	16G\	.	.	8g/	-ją!	.	.
.	.	16D\JJ)	.	.	.	.	.	.
=87	=87	=87	=87	=87	=87	=87	=87	=87
(4CC/	4e/	(>16c\LL	.	.	4ee^\	przy	.	.
.	.	16A\	.	.	.	.	.	.
.	.	16G\	.	.	.	.	.	.
.	.	16E\JJ)	.	.	.	.	.	.
*	*	*	*below	*	*	*	*	*
4EE/	4e/	(>16B\LL	2	.	8dd\	niej	.	.
.	.	16A\	1	.	.	.	.	.
.	.	16G#X\	2	.	8b\	się	.	.
.	.	16E\JJ)	.	.	.	.	.	.
=88	=88	=88	=88	=88	=88	=88	=88	=88
4AA/	4e/	(>16c\LL	.	.	8cc\	chłop-	.	.
.	.	16B\	.	.	.	.	.	.
.	.	16A\	.	.	8a/	-cy	.	.
.	.	16E\JJ)	.	.	.	.	.	.
4DD/	4d/	(>16F#X\LL	.	.	8dd\	ro-	.	.
.	.	16A\	.	.	.	.	.	.
.	.	16F#\	.	.	8cc\	-ją,	.	.
.	.	16D\JJ)	.	.	.	.	.	.
=89	=89	=89	=89	=89	=89	=89	=89	=89
4GG/	4d/	(>16G\LL	.	.	4b^\	smie-	.	.
.	.	16B\	.	.	.	.	.	.
.	.	16G\	.	.	.	.	.	.
.	.	16D\JJ)	.	.	.	.	.	.
4BBB/	4d#X/	(>16A\LL	.	.	8.a/	-szne	.	.
.	.	16B\	.	.	.	.	.	.
.	.	16A\	.	.	.	.	.	.
.	.	16F#\JJ)	.	.	16b\	lu-	.	.
=90	=90	=90	=90	=90	=90	=90	=90	=90
4EE/)	4e/	(>16G\LL	.	.	16g/LL	-dzi-	.	.
.	.	16B\	.	.	16f#/JJ	.	.	.
.	.	16G\	.	.	8e/	-ska!	.	.
.	.	16E\JJ)	.	.	.	.	.	.
8EE'/L	4e/	(>16G\LL	.	.	4r	.	.	.
.	.	16B\	.	.	.	.	.	.
8EE'/J	.	16G\	.	.	.	.	.	.
.	.	16E\JJ)	.	.	.	.	.	.
!!LO:LB:g=original
=91	=91	=91	=91	=91	=91	=91	=91	=91
(8.EE/L	4e/	(>16G\LL	.	.	4r	.	.	.
.	.	16B\	.	.	.	.	.	.
.	.	16G\	.	.	.	.	.	.
32FF#/LL	.	16E\JJ)	.	.	.	.	.	.
32GG/JJJ	.	.	.	.	.	.	.	.
8.AA/L	4e/	(>16A\LL	.	.	8e/	je-	.	.
.	.	16c\	.	.	.	.	.	.
.	.	16A\	.	.	8e/	-den	.	.
32GG/LL	.	16E\JJ)	.	.	.	.	.	.
32FF#/JJJ)	.	.	.	.	.	.	.	.
=92	=92	=92	=92	=92	=92	=92	=92	=92
(4EE/	4e/	(>16G\LL	.	.	4ee\	wą-	.	.
.	.	16c\	.	.	.	.	.	.
.	.	16G\	.	.	.	.	.	.
.	.	16E\JJ)	.	.	.	.	.	.
4FF#/	4d/	(>16A\LL	.	.	8dd\	-sem	.	.
.	.	16c\	.	.	.	.	.	.
.	.	16A\	.	.	8cc\	się	.	.
.	.	16D\JJ)	.	.	.	.	.	.
=93	=93	=93	=93	=93	=93	=93	=93	=93
4GG/	4d/	(>16G\LL	.	.	8b\	chwa-	.	.
.	.	16B\	.	.	.	.	.	.
.	.	16G\	.	.	16b\LL	-li,	.	.
.	.	16D\JJ)	.	.	16cc\JJ	.	.	.
8.GG#X^/L	4fn/	(>16B\LL	.	.	8dd\	dru-	.	.
.	.	16d\	.	.	.	.	.	.
.	.	16B\	.	.	8b\	-gi	.	.
32AA/LL	.	16Fn\JJ)	.	.	.	.	.	.
32BB/JJJ	.	.	.	.	.	.	.	.
=94	=94	=94	=94	=94	=94	=94	=94	=94
4C/	4e/	(>16A\LL	.	.	4ee\	mie-	.	.
.	.	16c\	.	.	.	.	.	.
.	.	16A\	.	.	.	.	.	.
.	.	16E\JJ)	.	.	.	.	.	.
4BB/	4e/	(>16G#X\LL	.	.	8dd\	-czem	.	.
.	.	16d\	.	.	.	.	.	.
.	.	16G#\	.	.	8b\	ze	.	.
.	.	16E\JJ)	.	.	.	.	.	.
=95	=95	=95	=95	=95	=95	=95	=95	=95
4AA/	4e/	(>16A\LL	.	.	8cc\	sta-	.	.
.	.	16c\	.	.	.	.	.	.
.	.	16A\	.	.	8a/	-li,	.	.
.	.	16E\JJ)	.	.	.	.	.	.
4DD/)	4f#/	(>16c\LL	.	.	8dd\	trze-	.	.
.	.	16d\	.	.	.	.	.	.
.	.	16c\	.	.	8cc\	-ci	.	.
.	.	16A\JJ)	.	.	.	.	.	.
!!LO:LB:g=original
=96	=96	=96	=96	=96	=96	=96	=96	=96
(4GG/	4g/	(>16B\LL	.	.	8b/L	sre-	.	.
.	.	16d\	.	.	.	.	.	.
.	.	16B\	.	.	8a/J	.	.	.
.	.	16G\JJ	.	.	.	.	.	.
4CC#X/	16B-X\LL	4ryy	.	.	8g/	-brem	.	.
.	16A\	.	.	.	.	.	.	.
.	16G\	.	.	.	8ee\	po-	.	.
.	16e\JJ	.	.	.	.	.	.	.
*	*v	*v	*	*	*	*	*	*
=97	=97	=97	=97	=97	=97	=97	=97
4DD/)	16Bn\LL	.	.	2dd\	-ły-	.	.
.	16A\	.	.	.	.	.	.
.	16G\	.	.	.	.	.	.
.	16d\JJ	.	.	.	.	.	.
4DD/	16A\LL	.	.	.	.	.	.
.	16G\	.	.	.	.	.	.
.	16F#\	.	.	.	.	.	.
.	16d\JJ)	.	.	.	.	.	.
=98!|:	=98!|:	=98!|:	=98!|:	=98!|:	=98!|:	=98!|:	=98!|:
*>B	*	*	*	*	*	*	*
*^	*	*	*	*	*	*	*
!	!	!LO:TX:b:i:t=sempre sempre tranquillo	!	!	!	!	!	!
!	!	!LO:TX:a:i:t=un poco piu mosso	!	!	!LO:TX:a:i:t=unpoco piu mosso	!	!	!
8r	2GG\	(>16B\LL	.	.	8g/	-ska.	wy.	.
.	.	16A\	.	.	.	.	.	.
8D'/L	.	16G\	.	.	8r	.	.	.
.	.	16A\JJ	.	.	.	.	.	.
8D'/	.	16B\LL	.	p	4r	.	.	.
.	.	16G\	.	.	.	.	.	.
8D'/J	.	16B\	.	.	.	.	.	.
.	.	16d\JJ	.	.	.	.	.	.
=99	=99	=99	=99	=99	=99	=99	=99	=99
8r	2GG\	16B\LL	.	.	4r	.	.	.
.	.	16A\	.	.	.	.	.	.
8D'/L	.	16G\	.	.	.	.	.	.
.	.	16A\JJ	.	.	.	.	.	.
8D'/	.	16B\LL	.	.	4b\	Mnie	.	.
.	.	16G\	.	.	.	.	.	.
8D'/J	.	16B\	.	.	.	.	.	.
.	.	16d\JJ	.	.	.	.	.	.
=100	=100	=100	=100	=100	=100	=100	=100	=100
8r	2GG\	16c\LL	.	.	4.cc^\	wię-	.	.
.	.	16B\	.	.	.	.	.	.
8C'/L 8E-X	.	16A\	.	.	.	.	.	.
.	.	16B\JJ	.	.	.	.	.	.
(<8C/ 8E-	.	16c\LL	.	.	.	.	.	.
.	.	16A\	.	.	.	.	.	.
8BB/J) 8D	.	16d\	.	.	8b\	-cej	.	.
.	.	16B\JJ	.	.	.	.	.	.
!!LO:PB:g=original
=101	=101	=101	=101	=101	=101	=101	=101	=101
8r	2GG\	16c\LL	.	.	4a/	Bóg	.	.
.	.	16B\	.	.	.	.	.	.
8C'/L 8E-X	.	16A\	.	.	.	.	.	.
.	.	16B\JJ	.	.	.	.	.	.
(<8C/ 8E-	.	16c\LL	.	.	4d/	prze-	.	.
.	.	16A\	.	.	.	.	.	.
8BB/J) 8D	.	16d\	.	.	.	.	.	.
.	.	16c\JJ)	.	.	.	.	.	.
=102	=102	=102	=102	=102	=102	=102	=102	=102
8r	2GG\	(>16B\LL	.	.	4e/	-zna-	.	.
.	.	16A\	.	.	.	.	.	.
8BB'/L 8D	.	16G\	.	.	.	.	.	.
.	.	16A\JJ	.	.	.	.	.	.
8BB'/ 8D	.	16B\LL	.	.	8d/	-cza,	.	.
.	.	16G\	.	.	.	.	.	.
8BB'/J 8D	.	16B\	.	.	8r	.	.	.
.	.	16d\JJ	.	.	.	.	.	.
=103	=103	=103	=103	=103	=103	=103	=103	=103
8r	2GG\	16B\LL	.	.	4r	.	.	.
.	.	16A\	.	.	.	.	.	.
8BB'/L 8D	.	16G\	.	.	.	.	.	.
.	.	16A\JJ	.	.	.	.	.	.
8BB'/ 8D	.	16B\LL	.	.	8r	.	.	.
.	.	16G\	.	.	.	.	.	.
8BB'/J 8D	.	16B\	.	.	8b\	znaj	.	.
.	.	16d\JJ	.	.	.	.	.	.
=104	=104	=104	=104	=104	=104	=104	=104	=104
8r	2GG\	16c\LL	.	.	4.cc^\	co	.	.
.	.	16B\	.	.	.	.	.	.
8E-X'/L 8G	.	16A\	.	.	.	.	.	.
.	.	16B\JJ	.	.	.	.	.	.
(<8E-/ 8G	.	16c\LL	.	.	.	.	.	.
.	.	16A\	.	.	.	.	.	.
8D/J) 8F#X	.	16d\	.	.	8b\	to	.	.
.	.	16B\JJ	.	.	.	.	.	.
=105	=105	=105	=105	=105	=105	=105	=105	=105
8r	2GG\	16c\LL	.	.	4a/	har-	.	.
.	.	16B\	.	.	.	.	.	.
8E-X'/L 8G	.	16A\	.	.	.	.	.	.
.	.	16B\JJ	.	.	.	.	.	.
(<8E-/ 8G	.	16c\LL	.	.	8.d/	-dość	.	.
.	.	16A\	.	.	.	.	.	.
8D/J) 8F#X	.	16d\	.	.	.	.	.	.
.	.	16c\JJ)	.	.	16d/	śpie-	.	.
*	*	*clefG2	*	*	*	*	*	*
!!LO:LB:g=original
=106	=106	=106	=106	=106	=106	=106	=106	=106
*	*	*	*above	*	*	*	*	*
8GG/	4GG\	(16B^/LL	1	.	8g/	-wa-	.	.
.	.	16c/	.	.	.	.	.	.
!	!	!	!	!LO:HP:t=crescendo:ext=ud	!	!	!	!
4G^^/	.	16d/	.	<	8g/	-cza!	.	.
.	.	16g/JJ)	.	.	.	.	.	.
.	4AA\	(16c^/LL	1	.	8r	.	.	.
.	.	16d/	.	.	.	.	.	.
[<8G^^/L	.	16e/	.	.	8g/	przed	.	.
.	.	16g/JJ)	.	.	.	.	.	.
=107	=107	=107	=107	=107	=107	=107	=107	=107
8G^^/J]	4BB\	(16d^/LL	.	.	4g^/	ni-	.	.
.	.	16e/	.	.	.	.	.	.
4G^^/	.	16f#/	.	.	.	.	.	.
.	.	16g/JJ)	.	.	.	.	.	.
.	4C\	(16e^/LL	.	.	8f#/	-kim	.	.
.	.	16f#/	.	.	.	.	.	.
[<8A^^/L	.	16g/	.	.	8e/	nie	.	.
.	.	16a/JJ)	.	.	.	.	.	.
=108	=108	=108	=108	=108	=108	=108	=108	=108
8A^^/J]	4D\	(16f#^/LL	.	.	8d/	zni-	.	.
.	.	16g/	.	.	.	.	.	.
4A^^/ 4d	.	16a/	.	.	8d/	-żę	.	.
.	.	16dd/JJ)	.	.	.	.	.	.
.	4E\	(16g^/LL	.	.	8r	.	.	.
.	.	16a/	.	.	.	.	.	.
[<8A^^/L [<8d	.	16b/	.	.	8dd\	ni	.	.
.	.	16dd/JJ)	.	.	.	.	.	.
=109	=109	=109	=109	=109	=109	=109	=109	=109
8A/J] 8d]	4F#\	(16a^\LL	.	.	4dd\	pieś-	.	.
.	.	16b\	.	.	.	.	.	.
4A^^/ 4d	.	16cc\	.	.	.	.	.	.
.	.	16dd\JJ)	.	.	.	.	.	.
.	4G\	(16b^\LL	.	.	8cc\	-ni	.	.
.	.	16cc\	.	.	.	.	.	.
8B^^/ 8d	.	16dd\	.	[	8b\	ni	.	.
.	.	16gg\JJ)	.	.	.	.	.	.
*v	*v	*	*	*	*	*	*	*
=110	=110	=110	=110	=110	=110	=110	=110
8C/	(>16ee\LL	.	f	(>4.ee^\	gło-	.	.
.	16ff#\	.	.	.	.	.	.
8G\L 8A 8e	16ee\	.	.	.	.	.	.
.	16cc\JJ	.	.	.	.	.	.
8G\ 8A 8e	16a/LL	.	.	.	.	.	.
.	16g/	.	.	.	.	.	.
8G\J 8A 8e	16a/	.	.	8g/)	-wy,	.	.
.	16cc/JJ	.	.	.	.	.	.
!!LO:LB:g=original
=111	=111	=111	=111	=111	=111	=111	=111
8C/	16ee-X\LL	4	>	(>4.ee-X^\	har-	.	.
.	16ffn\	.	.	.	.	.	.
8G\L 8A 8e-X	16ee-\	.	.	.	.	.	.
.	16cc\JJ	.	.	.	.	.	.
8G\ 8A 8e-	16a\LL	1	.	.	.	.	.
.	16g\	2	.	.	.	.	.
8G\J 8A 8e-	16a\	1	.	8g/)	-dy	.	.
.	16cc\JJ	3	.	.	.	.	.
=112	=112	=112	=112	=112	=112	=112	=112
8D\	16dd\LL	4	.	8b/L	lir-	.	.
.	16een\	.	.	.	.	.	.
8G\L 8B 8d	16dd\	.	.	8a/J	.	.	.
.	16b\JJ	.	.	.	.	.	.
*	*	*below	*	*	*	*	*
8G\ 8B 8d	16g/LL	1	.	8g/	-nik	.	.
.	16b/	3	.	.	.	.	.
8G\J 8B 8d	16g/	.	.	8een\	wio-	.	.
.	16e/JJ	.	.	.	.	.	.
=113	=113	=113	=113	=113	=113	=113	=113
*	*	*above	*	*	*	*	*
8D\L	16d/LL	3	.	2dd\	-sko-	.	.
.	16e/	.	.	.	.	.	.
8F#\ 8A	16d/	.	.	.	.	.	.
.	16c/JJ	.	.	.	.	.	.
8D\	16A/LL	.	.	.	.	.	.
.	16B/	.	.	.	.	.	.
8D\J 8F#	16c/	.	.	.	.	.	.
.	16A/JJ)	.	]	.	.	.	.
=114:|!	=114:|!	=114:|!	=114:|!	=114:|!	=114:|!	=114:|!	=114:|!
*>C	*	*	*	*	*	*	*
8GG\ 8G	8B/	.	.	4g/	-wy!	.	.
*	*	*below	*	*	*	*	*
8BBB/L 8BB	(>16d/LL	2	mf <	.	.	.	.
.	16f#/JJ	.	.	.	.	.	.
8CC/ 8C	16e/LL	.	.	8r	.	.	.
.	16c/	.	.	.	.	.	.
8DD/J 8D	16f#/	2	.	8f#/	ja	.	.
.	16a/JJ	.	.	.	.	.	.
=115	=115	=115	=115	=115	=115	=115	=115
8EE\L 8E	16g/LL	.	.	8g/L	lir-	.	.
.	16e/	.	.	.	.	.	.
8FF#\ 8F#	16a/	2	.	8a/J	.	.	.
.	16cc/JJ	.	.	.	.	.	.
8GG\ 8G	16b\LL	.	.	8b\	-nik	.	.
.	16g\	.	.	.	.	.	.
*	*	*above	*	*	*	*	*
8AA\J 8A	16cc\	2	.	8cc\	wio-	.	.
.	16ee\JJ)	.	[[	.	.	.	.
!!LO:LB:g=original
=116	=116	=116	=116	=116	=116	=116	=116
8BB\ 8B	8dd\	.	.	8dd\	-sko-	.	.
!	!LO:TX:a:i:t=colla parte	!	!	!LO:TX:a:i:t=ad lib.	!	!	!
8r	8r	.	sff	16b\	-wy,	.	.
.	.	.	.	16r	.	.	.
4EE/ 4E	4B/ 4d 4g#X	.	.	[4ee^\	sko-	.	.
=117	=117	=117	=117	=117	=117	=117	=117
*	*	*	*	*^	*	*	*
4AA/ 4E	4c#X^/ 4gn	.	.	12ee\L]	4ryy	.	.	.
.	.	.	.	12dd\J	.	.	.	.
.	.	.	.	12cc#X\	.	-nam	.	.
4DD;</ 4D	4A^;/ 4cn 4f#	.	.	12ccn\	36cc/LL	gra-	.	.
.	.	.	.	.	36dd/	.	.	.
.	.	.	.	.	36cc/JJ	.	.	.
.	.	.	.	12.b;\	6ryy	-jąc	.	.
.	.	.	.	.	.	.	.	.
.	.	.	.	24a/	.	na	.	.
*	*	*	*	*v	*v	*	*	*
=118	=118	=118	=118	=118	=118	=118	=118
!	!LO:TX:B:a:t=Presto.	!	!	!	!	!	!
8GG/ 8D	8B/ 8g	.	.	8g/	li-	.	.
.	.	.	.	.	.	.	.
*	*	*	*below	*	*	*	*
!	!	!	!LO:DY:b=2	!	!	!	!
(>16B\LL	(>16b^/LL	.	f	8g/	-rze.	.	.
.	.	.	.	.	.	.	.
16A\J	16a/	.	.	.	.	.	.
8G\J)	16g/	.	.	4r	.	.	.
.	.	.	.	.	.	.	.
.	16d/JJ)	.	.	.	.	.	.
(>16d\LL	(16dd^/LL	.	.	.	.	.	.
16c\J	16cc/	.	.	.	.	.	.
=119	=119	=119	=119	=119	=119	=119	=119
8B\J)	16b/	.	.	2r	.	.	.
.	.	.	.	.	.	.	.
.	16g/JJ)	.	.	.	.	.	.
*ped	*	*	*	*	*	*	*
8g'\L	(>16gg^\LL	.	.	.	.	.	.
.	16ee\	.	.	.	.	.	.
8d'\	16dd\	.	.	.	.	.	.
.	16b\JJ	.	.	.	.	.	.
8G'\	16g/LL	.	.	.	.	.	.
.	16e/	.	.	.	.	.	.
=120	=120	=120	=120	=120	=120	=120	=120
8D'\	16d/	.	.	2r	.	.	.
.	.	.	.	.	.	.	.
.	16B</JJ	.	.	.	.	.	.
8GG'\	16G</LL	.	.	.	.	.	.
.	16E</	.	.	.	.	.	.
8DD'\J	16D</	.	.	.	.	.	.
.	16BB</JJ	.	.	.	.	.	.
8ryy	16GG</LL	.	.	.	.	.	.
.	16DD</JJ	.	.	.	.	.	.
=121	=121	=121	=121	=121	=121	=121	=121
*ped	*	*	*	*	*	*	*
8ryy	8GGG</)	.	.	2r	.	.	.
.	.	.	.	.	.	.	.
8r	8r	.	.	.	.	.	.
8GG:\ 8D: 8G:	8B:/ 8d: 8g: 8b:	.	.	.	.	.	.
8r	8r	.	.	.	.	.	.
=122	=122	=122	=122	=122	=122	=122	=122
2GGG;</ 2GG	2G;/	.	.	2r;	.	.	.
==	==	==	==	==	==	==	==
*-	*-	*-	*-	*-	*-	*-	*-
!!!system-decoration: [s1,{(s2,s3)}]
!!!RDF**kern: > = above
!!!RDF**kern: < = below
!!!ENC: Berenika Jozajtis
!!!END: 2022-08-25
!!!ENC: Leszek Kubiak
!!!END: 2023-09-16
!!!YEC: Copyright 2022 Narodowy Instytut Fryderyka Chopina (https://polishscores.org)
!!!YEM: License CC-BY-4.0 (https://creativecommons.org/licenses/by/4.0)
